!!!COM: Verbytskyi, Mykhailo
!!!CDT: 1815-1870
!!!OTL: National Anthem, Ukraine
!!!ENC: Davis, Matthew J.
!!Vocal Line Only
**kern
*clefG2
*k[f#c#g#]
*f#:
*M4/4
=1-
1r
=2
1r
=3
1r
=4
1r
==5
4.cc#
8cc#
8cc#
8b
8cc#
8dd
=6
4.ee
8dd
4cc#
4b
=7
4a
4cc#
4g#
3cc#
=8
8f#
8e#
8f#
8g#
4a
4b
=9
4.cc#
8cc#
8cc#
8b
8cc#
8dd
=10
4.ee
8dd
8cc#
4b
=11
4a
4f#
4cc#
4e#
=12
2f#
4f#
4r
=13
4.g#
8g#
8cc#
8b
8a
8g#
=14
8f#
8g#
8a
8f#
4g#
4g#
=15
4a
4a
4b
4b
=16
2cc#
4cc#
4r
=17
4.g#
8g#
8cc#
8b
8a
8g#
=18
8f#
8g#
8a
8f#
4g#
4g#
=19
4a
4cc#
4g#
4cc#
=20
8f#
8g#
8a
8b
4cc#
4dd
=21
4.ee
8dd#
4ee
4cc#
=22
4b
4b
8ee
8dd
8cc#
8b
=23
4a
4a
4b
4b
=24
4.cc#
8b
8a
8b
8cc#
8dd
=25
4.ee
8dd#
4ee
4cc#
=26
4b
4b
8ee
8dd
8cc#
8b
=27
4a
4f#
4cc#
4e#
=28
2f#
4f#
4r
=29
4.ee
8dd#
4ee
4cc#
=30
4b
4b
8ee
8dd
8cc#
8b
=31
4a
4a
4b
4b
=32
4.cc#
8b
8a
8b
8cc#
8dd
=33
4.ee
8dd#
4ee
4cc#
=34
4b
4b
8ee
8dd
8cc#
8b
=35
4a
4f#
4cc#
4e#
=36
2f#
4f#
4r
==|!
*-
